static/images/svg/linkedin.svg

<svg enable-background="new 0 0 310 310" viewBox="0 0 310 310" xmlns="http://www.w3.org/2000/svg"><path d="m72.16 99.73h-62.233c-2.762 0-5 2.239-5 5v199.928c0 2.762 2.238 5 5 5h62.233c2.762 0 5-2.238 5-5v-199.928c0-2.761-2.238-5-5-5z"/><path d="m41.066.341c-22.644 0-41.066 18.402-41.066 41.021 0 22.629 18.422 41.038 41.066 41.038 22.626 0 41.033-18.41 41.033-41.038.001-22.619-18.407-41.021-41.033-41.021z"/><path d="m230.454 94.761c-24.995 0-43.472 10.745-54.679 22.954v-12.985c0-2.761-2.238-5-5-5h-59.599c-2.762 0-5 2.239-5 5v199.928c0 2.762 2.238 5 5 5h62.097c2.762 0 5-2.238 5-5v-98.918c0-33.333 9.054-46.319 32.29-46.319 25.306 0 27.317 20.818 27.317 48.034v97.204c0 2.762 2.238 5 5 5h62.12c2.762 0 5-2.238 5-5v-109.664c0-49.565-9.451-100.234-79.546-100.234z"/></svg>

<?xml version="1.0" encoding="iso-8859-1"?>
<!-- Generator: Adobe Illustrator 19.0.0, SVG Export Plug-In . SVG Version: 6.00 Build 0)  -->
<svg version="1.1" id="Layer_1" xmlns="http://www.w3.org/2000/svg" xmlns:xlink="http://www.w3.org/1999/xlink" x="0px" y="0px"
	 viewBox="0 0 310 310" style="enable-background:new 0 0 310 310;" xml:space="preserve">
<g id="XMLID_801_">
	<path id="XMLID_802_" d="M72.16,99.73H9.927c-2.762,0-5,2.239-5,5v199.928c0,2.762,2.238,5,5,5H72.16c2.762,0,5-2.238,5-5V104.73
		C77.16,101.969,74.922,99.73,72.16,99.73z"/>
	<path id="XMLID_803_" d="M41.066,0.341C18.422,0.341,0,18.743,0,41.362C0,63.991,18.422,82.4,41.066,82.4
		c22.626,0,41.033-18.41,41.033-41.038C82.1,18.743,63.692,0.341,41.066,0.341z"/>
	<path id="XMLID_804_" d="M230.454,94.761c-24.995,0-43.472,10.745-54.679,22.954V104.73c0-2.761-2.238-5-5-5h-59.599
		c-2.762,0-5,2.239-5,5v199.928c0,2.762,2.238,5,5,5h62.097c2.762,0,5-2.238,5-5v-98.918c0-33.333,9.054-46.319,32.29-46.319
		c25.306,0,27.317,20.818,27.317,48.034v97.204c0,2.762,2.238,5,5,5H305c2.762,0,5-2.238,5-5V194.995
		C310,145.43,300.549,94.761,230.454,94.761z"/>
</g>
<g>
</g>
<g>
</g>
<g>
</g>
<g>
</g>
<g>
</g>
<g>
</g>
<g>
</g>
<g>
</g>
<g>
</g>
<g>
</g>
<g>
</g>
<g>
</g>
<g>
</g>
<g>
</g>
<g>
</g>
</svg>
